jsapp/svg-icons/form.svg

<svg height="40" viewBox="0 0 40 40" width="40" xmlns="http://www.w3.org/2000/svg"><path d="m26.001 28h-12.001v-16h8v4h4zm-2.587-18h-9.414c-1.103 0-2 .898-2 2v16c0 1.103.897 2 2 2h12c1.103 0 2-.897 2-2v-13.414z" fill-rule="evenodd"/></svg>

<?xml version="1.0" encoding="UTF-8"?>
<svg width="40px" height="40px" viewBox="0 0 40 40" version="1.1" xmlns="http://www.w3.org/2000/svg" xmlns:xlink="http://www.w3.org/1999/xlink">
    <!-- Generator: Sketch 50.2 (55047) - http://www.bohemiancoding.com/sketch -->
    <title>Icons/form</title>
    <desc>Created with Sketch.</desc>
    <defs>
        <path d="M26.001,28 L14,28 L14,12 L22,12 L22,16 L26,16 L26.001,28 Z M23.414,10 L14,10 C12.897,10 12,10.898 12,12 L12,28 C12,29.103 12.897,30 14,30 L26,30 C27.103,30 28,29.103 28,28 L28,14.586 L23.414,10 Z" id="path-1"></path>
    </defs>
    <g id="Icons/form" stroke="none" stroke-width="1" fill="none" fill-rule="evenodd">
        <mask id="mask-2" fill="white">
            <use xlink:href="#path-1"></use>
        </mask>
        <use id="Mask" fill="#000000" xlink:href="#path-1"></use>
    </g>
</svg>
